X: 2
T: 2. Ap Shenkin
M: 6/8
L: 1/8
Q: 3/8=120
K: G
d/c/ | B2 B Bgf | {f}e2 e efg | ded dcB | BAA A2 d/c/ |  B2 B Bgf | e2 e efg | ded dcB | G2 G G2 :|!
g/a/ | b2 g a2 f | gfe dcB | cde dgB | BAA B2 g/a/ | b2 g a2 f | gfe agf | bag fge | dgf edc |!
B2 B Bgf | {f}e2 e efg | ded dcB | BAA A2 d/c/ |  B2 B Bgf | e2 e efg | ded dcB | G2 G G2 |]

